assets/icons/quotes.svg

<svg width="58" height="41" viewBox="0 0 58 41" fill="none" xmlns="http://www.w3.org/2000/svg">
<path d="M24.5312 0.992188C12.0859 2.89062 0.765625 12.1719 0.765625 25.3906C0.765625 34.5312 6.03906 40.7188 13.6328 40.7188C21.6484 40.7188 26.3594 33.8984 26.3594 25.5312C19.6797 25.25 15.1094 21.1016 15.1094 15.1953C15.1094 9.35938 19.5391 5.49219 25.6562 4.22656L24.5312 0.992188ZM55.9609 0.992188C43.5156 2.89062 32.1953 12.1719 32.1953 25.3906C32.1953 34.5312 37.4688 40.7188 45.0625 40.7188C53.0781 40.7188 57.7891 33.8984 57.7891 25.5312C51.1094 25.25 46.4688 21.1016 46.4688 15.1953C46.4688 9.35938 50.8984 5.49219 57.0156 4.22656L55.9609 0.992188Z" fill="#FD665E"/>
</svg>

<svg width="58" height="41" fill="none" xmlns="http://www.w3.org/2000/svg"><path d="M24.531.992C12.086 2.891.766 12.172.766 25.391c0 9.14 5.273 15.328 12.867 15.328 8.015 0 12.726-6.82 12.726-15.188-6.68-.281-11.25-4.43-11.25-10.336 0-5.836 4.43-9.703 10.547-10.968L24.531.992zm31.43 0c-12.445 1.899-23.766 11.18-23.766 24.399 0 9.14 5.274 15.328 12.867 15.328 8.016 0 12.727-6.82 12.727-15.188-6.68-.281-11.32-4.43-11.32-10.336 0-5.836 4.43-9.703 10.547-10.968L55.96.992z" fill="#FD665E"/></svg>
